src/cyql_frontend/assets/cyql-mark.svg

<svg fill="none" height="400" viewBox="0 0 400 400" width="400" xmlns="http://www.w3.org/2000/svg"><path d="m0 0h400v400h-400z" fill="#6200ea"/><path d="m253.32 191.067c.493 2.913.897 5.871.897 8.933 0 29.832-24.214 54.016-54.082 54.016s-54.083-24.184-54.083-54.016 24.215-54.001 54.083-54.001c12.204 0 23.347 4.197 32.395 11.009l20.61-66.4599c-16.078-7.7978-33.906-12.5481-52.99-12.5481-67.469 0-122.15 54.629-122.15 122s54.681 122 122.15 122c66.451 0 120.25-53.06 121.85-119.057z" fill="#fff"/></svg>

<svg width="400" height="400" viewBox="0 0 400 400" fill="none" xmlns="http://www.w3.org/2000/svg">
<rect width="400" height="400" fill="#6200EA"/>
<path d="M253.32 191.067C253.813 193.98 254.217 196.938 254.217 200C254.217 229.832 230.003 254.016 200.135 254.016C170.267 254.016 146.052 229.832 146.052 200C146.052 170.168 170.267 145.999 200.135 145.999C212.339 145.999 223.482 150.196 232.53 157.008L253.14 90.5481C237.062 82.7503 219.234 78 200.15 78C132.681 78 78 132.629 78 200C78 267.371 132.681 322 200.15 322C266.601 322 320.4 268.94 322 202.943L253.32 191.067Z" fill="white"/>
</svg>
